packages/core/src/svgs/tokens/branded/ADA.svg

<svg width="24" height="24" viewBox="0 0 24 24" fill="none" xmlns="http://www.w3.org/2000/svg">
<path d="M11.7611 3.1657C12.1972 2.94293 12.7343 3.45014 12.4978 3.87736C12.3699 4.2157 11.861 4.30514 11.5878 4.04681C11.3149 3.79737 11.406 3.29903 11.7699 3.15682L11.7611 3.1657ZM7.0755 3.65459C7.34826 3.54792 7.67549 3.77958 7.64882 4.05569C7.67604 4.35793 7.29382 4.58903 7.02105 4.43792C6.66605 4.30458 6.7116 3.74348 7.0755 3.65459ZM16.6822 4.44737C16.2638 4.39348 16.2 3.7707 16.5916 3.64626C16.91 3.50347 17.1917 3.7707 17.2372 4.05569C17.1738 4.2957 16.9644 4.51847 16.6822 4.44737ZM8.13994 5.56847C8.58549 5.30181 9.21327 5.70181 9.1405 6.19125C9.12271 6.69904 8.4405 6.99236 8.04882 6.65459C7.66715 6.38737 7.73049 5.77292 8.13994 5.56847ZM14.8994 5.86237C15.0994 5.37293 15.8999 5.35458 16.1271 5.82681C16.3454 6.20015 16.0727 6.66292 15.6727 6.78793C15.1539 6.87681 14.6538 6.34292 14.8994 5.86237ZM11.1965 6.75237C11.1965 6.33404 11.5966 6.02237 12.0155 5.99571C12.2883 6.04904 12.5888 6.16459 12.7066 6.43181C12.9249 6.79682 12.7343 7.30403 12.3338 7.48181C12.1517 7.57071 11.9339 7.53515 11.7339 7.52626C11.4332 7.38404 11.1783 7.09959 11.1965 6.76126V6.75237ZM4.22827 7.37515C4.62827 7.13515 5.17437 7.57125 5.01937 7.99848C4.93771 8.35403 4.42826 8.5057 4.13715 8.27404C3.82771 8.05181 3.87327 7.52681 4.22827 7.37515ZM19.2022 7.37515C19.5477 7.10847 20.1122 7.4107 20.0666 7.82014C20.0938 8.20292 19.6116 8.49681 19.266 8.3007C18.8927 8.13181 18.8472 7.58904 19.2022 7.37515ZM13.1616 8.13181C13.4455 8.0396 13.7514 8.04096 14.0344 8.1357C14.3178 8.2307 14.5604 8.41348 14.7266 8.65681C15.1449 9.24403 14.9266 10.1518 14.2622 10.4901C13.5799 10.8996 12.5794 10.5523 12.325 9.82288C12.0338 9.16404 12.4521 8.33626 13.1616 8.13181ZM9.841 8.19403C10.4688 7.90904 11.3149 8.14959 11.615 8.76348C11.9789 9.36903 11.6972 10.2057 11.0604 10.5168C10.4233 10.8729 9.51382 10.6057 9.21327 9.95627C8.85882 9.33348 9.16772 8.47848 9.841 8.19403ZM6.51161 9.28848C6.55716 8.89736 6.93938 8.64793 7.33049 8.62125C7.73994 8.6657 8.06716 8.97681 8.11271 9.37793C8.08493 9.7779 7.76716 10.1785 7.33049 10.1785C6.83882 10.2146 6.42049 9.74238 6.51161 9.28848ZM16.3366 8.70126C16.8366 8.43458 17.5194 8.8346 17.5011 9.37793C17.5378 9.96508 16.7732 10.3746 16.2822 10.0363C15.7633 9.75184 15.7999 8.95071 16.3366 8.70126ZM8.48549 10.7569C8.77507 10.6825 9.08089 10.7033 9.35772 10.8162C9.63385 10.9285 9.86433 11.1273 10.0138 11.3801C10.3322 11.8968 10.1961 12.6263 9.71384 13.0001C9.09493 13.5613 7.94882 13.3296 7.6216 12.573C7.23937 11.8784 7.69383 10.9435 8.48549 10.7569ZM14.7899 10.7569C15.3544 10.5968 16.0177 10.8107 16.3182 11.3001C16.7277 11.8696 16.5277 12.724 15.9361 13.0801C15.2993 13.5079 14.3349 13.2852 13.9894 12.6173C13.5711 11.9323 13.9894 10.9618 14.7899 10.7484V10.7569ZM4.73771 11.3891C5.23771 11.2112 5.79326 11.7452 5.59271 12.2257C5.46494 12.6618 4.82882 12.8224 4.50105 12.4923C4.10993 12.199 4.25549 11.523 4.73771 11.3891ZM18.356 12.0923C18.3513 11.9946 18.366 11.8968 18.3994 11.8048C18.4327 11.7128 18.4842 11.6282 18.5504 11.5563C18.6855 11.409 18.8739 11.3208 19.0749 11.3091C19.4116 11.3624 19.7482 11.6295 19.721 11.9946C19.7572 12.4663 19.1566 12.7957 18.7383 12.564C18.5382 12.4751 18.4383 12.2796 18.356 12.0923ZM2.26327 11.6295C2.57216 11.5051 2.94549 11.754 2.87271 12.074C2.85438 12.4396 2.29938 12.5818 2.09048 12.2796C1.90826 12.0657 2.01771 11.7452 2.27216 11.6295H2.26327ZM21.3222 11.6295C21.5405 11.4785 21.8766 11.5763 21.9588 11.8162C22.1044 12.083 21.8404 12.4396 21.5405 12.3946C21.1127 12.4306 20.9671 11.8074 21.3222 11.6207V11.6295ZM10.1232 13.3741C10.915 13.178 11.7699 13.8185 11.7788 14.6018C11.8243 15.4029 10.9872 16.1151 10.1688 15.9284C9.85954 15.8746 9.57889 15.7143 9.37549 15.4751C9.17469 15.2392 9.06545 14.9388 9.06771 14.629C9.06771 14.0501 9.52328 13.4985 10.1232 13.3829V13.3741ZM13.271 13.3741C14.0805 13.1602 14.9539 13.8102 14.9449 14.6201C14.9899 15.394 14.1715 16.0796 13.3711 15.9196C12.6249 15.8307 12.07 15.0385 12.2793 14.3352C12.3882 13.8724 12.7888 13.4896 13.271 13.3741ZM7.19382 13.8629C7.75771 13.774 8.28548 14.3707 8.04938 14.8779C7.88549 15.4207 7.06604 15.5723 6.70271 15.1273C6.27493 14.6995 6.59327 13.9162 7.19382 13.8629ZM16.4366 13.8901C16.9277 13.6852 17.5466 14.1035 17.5011 14.6201C17.5288 15.1895 16.7732 15.5901 16.2822 15.2518C15.736 14.9491 15.8272 14.0685 16.4366 13.8901ZM19.011 16.3824C18.8199 16.0263 19.175 15.5635 19.5755 15.6258C19.7754 15.6258 19.921 15.7768 20.0483 15.9102C20.076 16.1151 20.121 16.3557 19.9388 16.5246C19.6932 16.8185 19.1478 16.729 19.011 16.3824ZM4.21882 15.7235C4.59215 15.4834 5.12882 15.8479 5.0466 16.2663C5.0016 16.6496 4.50993 16.8629 4.1916 16.6496C3.84604 16.4534 3.85438 15.9019 4.21882 15.7235ZM11.6699 16.5157C12.161 16.3018 12.7888 16.7201 12.7433 17.2368C12.7793 17.8145 12.0066 18.2158 11.5244 17.8685C10.9782 17.5746 11.0689 16.6935 11.6699 16.5157ZM8.21271 17.2902C8.64049 17.0763 9.20438 17.4412 9.15883 17.8957C9.17715 18.269 8.79493 18.5896 8.42215 18.5269C8.10382 18.5269 7.89438 18.2513 7.79438 17.9934C7.79438 17.7085 7.92216 17.3968 8.22216 17.2813L8.21271 17.2902ZM15.2177 17.2902C15.6454 17.0318 16.2549 17.4057 16.2183 17.8862C16.2272 18.4029 15.536 18.7229 15.1267 18.3935C14.7444 18.1268 14.7899 17.5034 15.2177 17.299V17.2902ZM16.4277 20.1824C16.2365 19.9157 16.4638 19.5684 16.7732 19.5062C17.0283 19.5596 17.2916 19.7373 17.2282 20.0135C17.2005 20.3963 16.6278 20.5118 16.4277 20.1913V20.1824ZM6.77549 19.9424C6.84771 19.7201 7.02993 19.4974 7.30327 19.559C7.70327 19.5862 7.8216 20.1646 7.47549 20.3423C7.15771 20.5385 6.80271 20.263 6.77549 19.9424ZM11.4332 20.2001C11.5054 19.8713 11.9516 19.7113 12.2427 19.889C12.4249 19.969 12.4883 20.1736 12.5338 20.3518L12.4616 20.6184C12.3427 20.7613 12.1882 20.8946 11.9971 20.8851C11.6243 20.9302 11.2877 20.5296 11.4332 20.2001Z" fill="#246DD3"/>
</svg>

<svg xmlns="http://www.w3.org/2000/svg" width="24" height="24" fill="none" viewBox="0 0 24 24">
    <path fill="#246DD3" d="M11.761 3.166c.436-.223.973.284.737.711-.128.339-.637.428-.91.17-.273-.25-.182-.748.182-.89zm-4.685.489c.272-.107.6.125.573.4.027.303-.355.534-.628.383-.355-.133-.31-.695.054-.783m9.606.792c-.418-.054-.482-.676-.09-.8.318-.144.6.124.645.409-.063.24-.273.462-.555.391M8.14 5.568c.445-.266 1.073.134 1 .623-.017.508-.7.801-1.091.464-.382-.268-.319-.882.09-1.087m6.76.294c.2-.49 1-.507 1.227-.035.218.373-.054.836-.454.96-.52.09-1.02-.444-.774-.925m-3.703.89c0-.418.4-.73.819-.756.272.053.573.169.69.436.219.365.028.872-.372 1.05-.182.089-.4.053-.6.044-.3-.142-.556-.426-.537-.765zm-6.969.623c.4-.24.946.196.791.623-.081.356-.59.508-.882.276-.31-.222-.264-.747.091-.899m14.974 0c.346-.267.91.036.865.445.027.383-.455.677-.801.48-.373-.168-.419-.711-.064-.925m-6.04.757a1.4 1.4 0 0 1 .872.004c.284.095.526.277.693.52.418.588.2 1.496-.465 1.834-.682.41-1.683.062-1.937-.667-.291-.659.127-1.487.837-1.691m-3.321.062c.628-.285 1.474-.044 1.774.57.364.605.082 1.442-.555 1.753-.637.356-1.546.089-1.847-.56-.354-.624-.045-1.479.628-1.763m-3.33 1.094c.046-.39.428-.64.82-.667a.87.87 0 0 1 .782.757c-.028.4-.346.8-.783.8-.491.037-.91-.436-.818-.89m9.826-.587c.5-.266 1.182.134 1.164.677.037.587-.728.997-1.219.658-.519-.284-.482-1.085.055-1.335m-7.852 2.056a1.38 1.38 0 0 1 1.529.623c.318.517.182 1.246-.3 1.62-.62.561-1.765.33-2.092-.427-.383-.695.072-1.63.863-1.816m6.305 0c.564-.16 1.228.054 1.528.543.41.57.21 1.424-.382 1.78-.637.428-1.601.205-1.947-.463-.418-.685 0-1.655.8-1.869zm-10.052.632c.5-.178 1.055.356.855.837-.128.436-.764.596-1.092.266-.391-.293-.246-.969.237-1.103m13.618.703a.74.74 0 0 1 .194-.536.77.77 0 0 1 .525-.247c.337.053.673.32.646.686.036.471-.564.8-.983.569-.2-.089-.3-.284-.382-.472M2.263 11.63c.31-.124.682.125.61.445-.019.366-.574.508-.783.206-.182-.214-.072-.535.182-.65zm19.06 0c.218-.15.554-.053.636.187.145.267-.119.624-.418.579-.428.036-.574-.588-.219-.774zm-11.2 1.745c.792-.196 1.647.444 1.656 1.228.045.8-.792 1.513-1.61 1.326a1.34 1.34 0 0 1-.794-.453 1.3 1.3 0 0 1-.307-.846c0-.579.455-1.13 1.055-1.246zm3.148 0c.81-.214 1.683.436 1.674 1.246.045.774-.774 1.46-1.574 1.3-.746-.09-1.301-.881-1.092-1.585.11-.463.51-.845.992-.96m-6.077.489c.564-.089 1.091.508.855 1.015-.164.543-.983.694-1.346.25-.428-.428-.11-1.212.49-1.265m9.243.027c.49-.205 1.11.213 1.064.73.028.57-.728.97-1.219.632-.546-.303-.455-1.184.155-1.362m2.574 2.492c-.191-.356.164-.819.565-.756.2 0 .345.15.472.284.028.205.073.446-.11.615-.245.294-.79.204-.927-.143m-14.792-.659c.373-.24.91.125.828.543-.045.384-.537.597-.855.384-.346-.197-.338-.748.027-.926m7.45.793c.492-.214 1.12.204 1.074.72.036.578-.736.98-1.219.633-.546-.294-.455-1.175.146-1.353m-3.456.774c.427-.214.991.151.946.606.018.373-.364.694-.737.63-.318 0-.528-.275-.628-.533 0-.284.128-.596.428-.712zm7.005 0c.427-.258 1.037.116 1 .596.01.517-.682.837-1.091.508-.383-.267-.337-.89.09-1.095zm1.21 2.892c-.192-.266.036-.614.345-.676.255.054.519.231.455.508-.027.382-.6.498-.8.177zm-9.653-.24c.073-.222.255-.445.528-.383.4.027.519.606.172.783-.317.197-.672-.079-.7-.4m4.658.258c.072-.329.519-.489.81-.311.182.08.245.285.29.463l-.071.266c-.12.143-.274.277-.465.267-.373.045-.71-.355-.564-.685"/>
</svg>
